Catalina-light/actions/16/view-paged.svg

<svg xmlns="http://www.w3.org/2000/svg" width="16" height="16" viewBox="0 0 16 16">
 <defs>
  <style id="current-color-scheme" type="text/css">
   .ColorScheme-Text { color:#5c616c; } .ColorScheme-Highlight { color:#5294e2; }
  </style>
 </defs>
 <path style="fill:currentColor" class="ColorScheme-Text" d="M 1 0.03125 L 1 13.03125 L 3 13.03125 C 2.99959 9.35515 3.00009 5.6798062 3 2.0039062 C 5.7159 2.0089062 12 2.0039062 12 2.0039062 C 12 2.0039062 12 0.48205 12 0.03125 C 8.3335 0.03152 4.6659 0.03032 1 0.03125 z M 4 3.03125 L 4 16.03125 L 15 16.03125 L 15 3.03125 L 4 3.03125 z M 6 5.0039062 L 13 5.0039062 L 13 14.003906 L 6 14.003906 L 6 5.0039062 z"/>
</svg>

<svg width="16" height="16" viewBox="0 0 16 16" xmlns="http://www.w3.org/2000/svg">
<defs>
<style id="current-color-scheme" type="text/css">.ColorScheme-Text { color:#5c616c; } .ColorScheme-Highlight { color:#5294e2; }</style>
</defs>
<path class="ColorScheme-Text" d="m1 0.03125v13h2c-4.1e-4 -3.6761 9e-5 -7.3514 0-11.027 2.7159 5e-3 9 0 9 0v-1.9727c-3.6665 2.7e-4 -7.3341-9.3e-4 -11 0zm3 3v13h11v-13h-11zm2 1.9727h7v9h-7v-9z" fill="currentColor"/>
</svg>
